icons/breezeDark/actions/22/voronoi-path.svg

<svg viewBox="0 0 22 22" xmlns="http://www.w3.org/2000/svg"><path d="m18 3c0 3.0558068-1.962748 5.9570652-4.693359 7.041016a2.5 2.5 0 0 1 .193359.958984 2.5 2.5 0 0 1 -.001953.039062c3.193589-1.175994 5.501953-4.4943637 5.501953-8.039062zm-11 1-2 1.5 2 1.5v-1h5v-1h-5zm1.5019531 6.960938c-3.1935894 1.175995-5.5019531 4.49439-5.5019531 8.039062h1c0-3.055807 1.9627476-5.957065 4.6933594-7.041016a2.5 2.5 0 0 1 -.1933594-.958984 2.5 2.5 0 0 1 .0019531-.039062zm6.4980469 4.039062v1h-5v1h5v1l2-1.5z" fill="#c0c0c0"/><path d="m11 8.5a2.5 2.5 0 0 0 -2.5 2.5 2.5 2.5 0 0 0 2.5 2.5 2.5 2.5 0 0 0 2.5-2.5 2.5 2.5 0 0 0 -2.5-2.5zm0 1a1.5 1.5 0 0 1 1.5 1.5 1.5 1.5 0 0 1 -1.5 1.5 1.5 1.5 0 0 1 -1.5-1.5 1.5 1.5 0 0 1 1.5-1.5z" fill="#3daee9"/></svg>

<?xml version="1.0" encoding="UTF-8" standalone="no"?>
<svg
   xmlns:dc="http://purl.org/dc/elements/1.1/"
   xmlns:cc="http://creativecommons.org/ns#"
   xmlns:rdf="http://www.w3.org/1999/02/22-rdf-syntax-ns#"
   xmlns:svg="http://www.w3.org/2000/svg"
   xmlns="http://www.w3.org/2000/svg"
   xmlns:sodipodi="http://sodipodi.sourceforge.net/DTD/sodipodi-0.dtd"
   xmlns:inkscape="http://www.inkscape.org/namespaces/inkscape"
   viewBox="0 0 22 22"
   version="1.1"
   id="svg8"
   sodipodi:docname="path-reverse.svg"
   inkscape:version="0.92.4 (5da689c313, 2019-01-14)">
  <metadata
     id="metadata12">
    <rdf:RDF>
      <cc:Work
         rdf:about="">
        <dc:format>image/svg+xml</dc:format>
        <dc:type
           rdf:resource="http://purl.org/dc/dcmitype/StillImage" />
        <dc:title></dc:title>
      </cc:Work>
    </rdf:RDF>
  </metadata>
  <sodipodi:namedview
     pagecolor="#ffffff"
     bordercolor="#666666"
     borderopacity="1"
     objecttolerance="10"
     gridtolerance="10"
     guidetolerance="10"
     inkscape:pageopacity="0"
     inkscape:pageshadow="2"
     inkscape:window-width="998"
     inkscape:window-height="880"
     id="namedview10"
     showgrid="true"
     inkscape:snap-object-midpoints="true"
     inkscape:zoom="30.341309"
     inkscape:cx="10.224049"
     inkscape:cy="13.080448"
     inkscape:window-x="2031"
     inkscape:window-y="659"
     inkscape:window-maximized="0"
     inkscape:current-layer="svg8">
    <inkscape:grid
       type="xygrid"
       id="grid822" />
  </sodipodi:namedview>
  <defs
     id="defs3051">
    <style
       type="text/css"
       id="current-color-scheme">
      .ColorScheme-Text {
        color:#c0c0c0;
      }
      .ColorScheme-Highlight {
        color:#3daee9;
      }
      </style>
  </defs>
  <path
     style="fill:#c0c0c0;fill-opacity:1;stroke:none"
     d="M 18 3 C 18 6.0558068 16.037252 8.9570652 13.306641 10.041016 A 2.5 2.5 0 0 1 13.5 11 A 2.5 2.5 0 0 1 13.498047 11.039062 C 16.691636 9.863068 19 6.5446983 19 3 L 18 3 z M 7 4 L 5 5.5 L 7 7 L 7 6 L 12 6 L 12 5 L 7 5 L 7 4 z M 8.5019531 10.960938 C 5.3083637 12.136933 3 15.455328 3 19 L 4 19 C 4 15.944193 5.9627476 13.042935 8.6933594 11.958984 A 2.5 2.5 0 0 1 8.5 11 A 2.5 2.5 0 0 1 8.5019531 10.960938 z M 15 15 L 15 16 L 10 16 L 10 17 L 15 17 L 15 18 L 17 16.5 L 15 15 z "
     id="path4" />
  <path
     style="fill:#3daee9;fill-opacity:1;stroke:none;stroke-opacity:1"
     d="M 11 8.5 A 2.5 2.5 0 0 0 8.5 11 A 2.5 2.5 0 0 0 11 13.5 A 2.5 2.5 0 0 0 13.5 11 A 2.5 2.5 0 0 0 11 8.5 z M 11 9.5 A 1.5 1.5 0 0 1 12.5 11 A 1.5 1.5 0 0 1 11 12.5 A 1.5 1.5 0 0 1 9.5 11 A 1.5 1.5 0 0 1 11 9.5 z "
     id="path827" />
</svg>
